X:1
T:Quasi adagio
T:28-Choral
T:Béla Bartók Revised and Arranged by the Composer, January 1945 
T:Book 1 (after Hungarian Folksongs)
T:For Children Nr 28 , Sz 42
C:Bela bartok
%%score { ( 1 4 ) | ( 2 3 ) }
L:1/8
Q:1/4=116
M:3/4
K:C
V:1 treble nm="Piano"
V:4 treble 
V:2 bass 
V:3 bass 
V:1
"^Andante,"!p! (!tenuto!!3!D2 !tenuto!!2!D2 !tenuto!!1!D2 |"^espr."!<(! !2!A4 B2!<)! | %2
 c2!>(! B2 A2 | G4!>)! !tenuto!!2!G2) | %4
[M:3/2] !tenuto!!4!A2 !tenuto!!3!A2 (!tenuto!!2!A2!>(! !tenuto!!1!G2 !tenuto!!3!F2 !tenuto!!2!F2) | %5
[M:4/4] !tenuto!!1!E4!>)! !tenuto!!2!E2 !tenuto!!1!E2 |[M:3/4]!pp! !2!!4![EG]4!<(! ([E-G]2!<)! | %7
 [EA]4)!<(! (([EG]2!<)! | [FA]4))!<(! (E2!<)! | F4 D2) |"_1" z6 | %11
[M:3/2]!mf! !tenuto!!4!A2 !tenuto!!3!A2 (!2!A2 !1!G2 !2!E2 !3!F2) | %12
[M:4/4] !^!!1!D4 !tenuto!!2!D2 !tenuto!!1!D2 | %13
[M:3/4]!p! (!tenuto!!3!D2 !tenuto!!2!D2 !tenuto!!1!D2 |!<(! !3!A4 B2 | c2!<)!!>(! B2 !3!A2!>)! | %16
 !2!G4 !tenuto!!4!G2) |[M:3/2] !tenuto!.!5!A2 !tenuto!.!5!A2 (!4!A2 G2 F2 !tenuto!!3!F2) | %18
[M:4/4] !tenuto!!1!E4 !tenuto!!2!E2 !tenuto!!1!E2 |[M:3/4]!p! !2!!4![_EG]4!<(! ([EG]2!<)! | %20
 !1!!5![=EA]4)!<(! (!2!!4![_E-G]2!<)! | !5![EA]4)!<(! (!2!!4![C=E]2!<)! | !1!!5![_B,-F]4 [B,D]2) | %23
"_1" z6 |[M:3/2]!mf! !tenuto!!4!A2 !tenuto!!3!A2 (!2!A2 !1!G2 !2!E2 !3!F2 | %25
[M:4/4] !1!D4) !tenuto!!2!D2 !tenuto!!1!D2[Q:1/4=80]"^T" | %26
[M:3/4]!p! (!tenuto!!3!D2 !tenuto!!2!D2 !tenuto!!1!D2 | !2!A4"_cresc." B2 | c2 B2 A2 | %29
 !tenuto!G4 !tenuto!!2!G2) |[M:3/2] (!4!A2 !3!A2 !2!A2 !1!G2 !3!F2 !1!!4![=B,F]2) | %31
[M:4/4]!f! !tenuto!!3!E4 !tenuto!E2 !tenuto!E2 | %32
[M:3/4]!pp! !tenuto!!1!!4![DG]4 !tenuto!!2!!5![DG]2 | !tenuto![EA]4 !tenuto![DG]2 | %34
 !tenuto![EA]4 !tenuto!!1!!3![=CE]2 | !tenuto!!2!!4![DF]4 !tenuto!!1!!3![=B,D]2 | !fermata!z6 | %37
[M:3/2]!f![Q:1/4=110]"^T""^allargando" (!5!A2 !5!A2[Q:1/4=105]"^T"!<(! A8-[Q:1/4=100][Q:1/4=90] | %38
[M:4/4][Q:1/4=85]"^T" !^!A8)!<)![Q:1/4=80][Q:1/4=75] |] %39
V:2
 !arpeggio![D,F,A,]2 z2 z2 |!>(! !1!F2 E2 D2!>)! | (!1
5
!A,4 B,2 | ([CE]2) D2 E2 | %4
[M:3/2] !2-1!C6) (!2!B,2 !1!E2 D2- |[M:4/4]!>(! D2 !1!C2 !2!B,2 !5!E,2)!>)! |[M:3/4] C4 (!1!C2 | %7
 !4!!2![A,^C]4) (!1!=C2- | [F,C]4) ([A,C]2 | [G,B,]6) | z6 | %11
[M:3/2] (!5!!3![F,A,]4 [G,B,]4 [A,^C]4) |[M:4/4] z4 (!3!!1![G,B,]2 !4!!2![F,A,]2) |[M:3/4] z6 | %14
 (!tenuto!!4!D,,2 !tenuto!!3!D,,2 !tenuto!!2!D,,2 |!<(! !1!A,,4 !2!B,,2 | %16
 C,2!<)!!>(! B,,2 A,,2!>)! |[M:3/2] G,,4) (!5!!3![F,A,]4 [G,B,]4) |[M:4/4] (D4 ^C4) | %19
[M:3/4] !1!=C4 (C2 | !4!!2![A,^C]4) (!1!=C2- | !5![F,C]4) (!3!!1![E,G,]2 | [D,F,]6) | z6 | %24
[M:3/2] (!2!C4 [B,D]4 ^C4) |[M:4/4] (!3!!1![G,B,]4 [D,A,]4) |[M:3/4] z6 | %27
 !tenuto!!1
3
5
![D,F,A,]2 !tenuto![D,F,A,]2 !tenuto![D,F,A,]2 | %28
 !tenuto![D,F,A,]2 !tenuto![D,F,A,]2 !tenuto![D,F,A,]2 | %29
 !tenuto!!1
3
5
![D,F,B,]2 !tenuto![D,F,B,]2 !tenuto![D,F,B,]2 | %30
[M:3/2] !tenuto!!5!!3![C,F,]2 !tenuto!!3!!1![F,C]2 !tenuto!!5!!4!!1![D,F,C]2 (!2![D,F,_B,]2!ped! !1
4
5
![D,F,A,]2 !2
5
![A,,D,]2)!ped-up! | %31
[M:4/4]!ped! !3!!1![C,G,]8!ped-up! |[M:3/4] !tenuto!!2
4
![G,B,]4 !tenuto![G,B,]2 | %33
 !tenuto![A,C]4 !tenuto![G,B,]2 | !tenuto!!3!!1![A,^C]4 !tenuto!!5!!2![E,A,]2 | %35
 !tenuto!!4!!1![F,_B,]4 !tenuto!!5!!2![D,G,]2 | !fermata!z6 |[M:3/2] !1!A,,2 !1!A,,2 A,,8- | %38
[M:4/4] A,,8 |] %39
V:3
 x6 | x6 | E2 x4 | x6 |[M:3/2] (!5!F,4 !4!G,4) z4 |[M:4/4] x8 |[M:3/4] x6 | x6 | x6 | x6 | x6 | %11
[M:3/2] x12 |[M:4/4] !5!D,8 |[M:3/4] x6 | x6 | x6 | x6 |[M:3/2] x12 |[M:4/4] !1
4
!A,8 | %19
[M:3/4] x6 | x6 | x6 | x6 | x6 |[M:3/2] !4!A,12 |[M:4/4] x8 |[M:3/4] x6 | x6 | x6 | x6 | %30
[M:3/2] x12 |[M:4/4] x8 |[M:3/4] x6 | x6 | x6 | x6 | x6 |[M:3/2] x4 A,,2 G,,2 E,,2 F,,2 | %38
[M:4/4] !^!D,,4 !tenuto!D,,2 !tenuto!D,,2 |] %39
V:4
 x6 | x6 | x6 | x6 |[M:3/2] x12 |[M:4/4] x8 |[M:3/4] x6 | x6 | x6 | x6 | x6 |[M:3/2] x12 | %12
[M:4/4] x8 |[M:3/4] x6 | !2!F6 | E6 | (_E2 !1!D2 !2!C2 |[M:3/2] !1!B,4) x8 |[M:4/4] x8 | %19
[M:3/4] x6 | x6 | x6 | x6 | x6 |[M:3/2] x12 |[M:4/4] x8 |[M:3/4] x6 | x6 | x6 | x6 |[M:3/2] x12 | %31
[M:4/4] (!2!D4 C4) |[M:3/4] x6 | x6 | x6 | x6 | x6 |[M:3/2] x4 A2 G2"^T" E2"^T" F2 | %38
[M:4/4] D4"^T" !tenuto!D2"^T" !tenuto!D2 |] %39

